X: 1
T: Joe Ryan's
M: 4/4
L: 1/8
R: hornpipe
K: Ador
|:AG|EAAB cBcA|dcde g2 (3efg|abag edcB|AGEF G2AG|
EAAB cBcA|dcde g2 (3efg|abge dged|c2 A2 A2:|
|:ef|g3a gede|gage d2cd|ed (3efg agab|abag e2ed|
eged c2AB|cedc B2cB|ABce dcBc|AGEF G2AG|
EAAB cBcA|dcde g2 (3efg|abge dged|c2 A2 A2:|
